icons/op-ticket-edit-24.svg

<svg width="24" height="24" viewBox="0 0 24 24" fill="none" xmlns="http://www.w3.org/2000/svg">
<path d="M10.6843 19.4375L10.8717 18.0938L11.0591 16.7188L12.2147 17.875L13.3703 19.0625L12.0273 19.25L10.6843 19.4375ZM17.2432 14.4062L13.7764 17.875L13.3703 17.5L16.8684 14L16.0876 13.25L12.5895 16.7188L12.2147 16.3438L15.6815 12.8438L15.3067 12.4688L11.4339 16.3438L13.7764 18.6562L17.618 14.7812L17.2432 14.4062ZM18.836 13.625C19.0547 13.4375 19.0547 13.0938 18.836 12.875L17.2744 11.3125C17.0558 11.125 16.7122 11.0938 16.5248 11.3125C16.4936 11.3438 16.4936 11.3438 16.4936 11.375L16.4624 11.3438L15.744 12.0938L18.0552 14.4375L18.8048 13.6875L18.7736 13.6562C18.8048 13.6562 18.836 13.6562 18.836 13.625ZM12.9643 5.4375L16.275 8.71875L17.2744 7.71875L13.589 4H5V20H8.96654V18.5625H6.4367V5.4375H12.9643Z" fill="black"/>
</svg>

<svg xmlns="http://www.w3.org/2000/svg" width="24" height="24" viewBox="0 0 24 24"><path d="m10.684 19.438.188-1.344.187-1.375 1.156 1.156 1.155 1.187-1.343.188-1.343.188Zm6.559-5.032-3.467 3.469-.406-.375 3.498-3.5-.78-.75-3.499 3.469-.374-.375 3.466-3.5-.374-.375-3.873 3.875 2.342 2.312 3.842-3.875-.375-.375Zm1.593-.781c.219-.187.219-.531 0-.75l-1.562-1.563c-.218-.187-.562-.218-.749 0-.031.032-.031.032-.031.063l-.032-.031-.718.75 2.311 2.344.75-.75-.031-.032c.031 0 .062 0 .062-.031Zm-5.872-8.187 3.311 3.281.999-1L13.589 4H5v16h3.967v-1.438h-2.53V5.438h6.527Z"/></svg>
